emoticon-confused.svg

<svg fill="currentColor" viewBox="0 0 24 24"><path d="M12 2a10 10 0 1 0 10 10A10 10 0 0 0 12 2M8.5 8A1.5 1.5 0 1 1 7 9.5 1.54 1.54 0 0 1 8.5 8m8.5 8h-4a4 4 0 0 0-3.47 2L7.8 17a6 6 0 0 1 5.2-3h4m-1.5-3A1.5 1.5 0 1 1 17 9.5a1.54 1.54 0 0 1-1.5 1.5"/></svg>

<svg  viewBox="0 0 24 24" fill="currentColor"><path  d="M12 2A10 10 0 1 0 22 12A10 10 0 0 0 12 2M8.5 8A1.5 1.5 0 1 1 7 9.5A1.54 1.54 0 0 1 8.5 8M17 16H13A4 4 0 0 0 9.53 18L7.8 17A6 6 0 0 1 13 14H17M15.5 11A1.5 1.5 0 1 1 17 9.5A1.54 1.54 0 0 1 15.5 11Z"/></svg>
